public/images/deliver-steps-mob.svg

<svg width="32" height="618" viewBox="0 0 32 618" fill="none" xmlns="http://www.w3.org/2000/svg">
<path d="M16 30V606" stroke="#B6D4F7" stroke-width="8"/>
<rect width="32" height="32" rx="16" fill="#1574E5"/>
<rect x="6.85693" y="6.85669" width="18.2857" height="18.2857" rx="9.14286" fill="#E8F1FC"/>
<path d="M20.4089 12.7433L15.4061 20.2458C15.2868 20.4207 15.1089 20.5353 14.9124 20.5639C14.7158 20.5924 14.5171 20.5325 14.361 20.3976L10.7885 17.2412C10.4732 16.9624 10.4222 16.454 10.6745 16.1056C10.9267 15.7572 11.3868 15.7008 11.7021 15.9796L14.6811 18.6134L19.2322 11.7878C19.3815 11.5403 19.6417 11.4035 19.9096 11.4316C20.1775 11.4598 20.4097 11.6483 20.5141 11.9225C20.6185 12.1966 20.5781 12.5119 20.4089 12.7433Z" fill="#093160"/>
<rect y="77" width="32" height="32" rx="16" fill="#1574E5"/>
<rect x="6.85742" y="83.8574" width="18.2857" height="18.2857" rx="9.14286" fill="#E8F1FC"/>
<path d="M20.4089 89.7437L15.4061 97.2462C15.2868 97.4212 15.1089 97.5358 14.9124 97.5644C14.7158 97.5929 14.5171 97.533 14.361 97.3981L10.7885 94.2417C10.4732 93.9629 10.4222 93.4545 10.6745 93.1061C10.9267 92.7577 11.3868 92.7013 11.7021 92.9801L14.6811 95.6139L19.2322 88.7883C19.3815 88.5408 19.6417 88.404 19.9096 88.4321C20.1775 88.4603 20.4097 88.6488 20.5141 88.923C20.6185 89.1971 20.5781 89.5124 20.4089 89.7437Z" fill="#093160"/>
<rect y="154" width="32" height="32" rx="16" fill="#1574E5"/>
<rect x="6.85693" y="160.857" width="18.2857" height="18.2857" rx="9.14286" fill="#E8F1FC"/>
<path d="M20.4089 166.744L15.4061 174.247C15.2868 174.422 15.1089 174.536 14.9124 174.565C14.7158 174.593 14.5171 174.533 14.361 174.399L10.7885 171.242C10.4732 170.963 10.4222 170.455 10.6745 170.107C10.9267 169.758 11.3868 169.702 11.7021 169.981L14.6811 172.614L19.2322 165.789C19.3815 165.541 19.6417 165.404 19.9096 165.433C20.1775 165.461 20.4097 165.649 20.5141 165.923C20.6185 166.198 20.5781 166.513 20.4089 166.744Z" fill="#093160"/>
<rect y="226" width="32" height="32" rx="16" fill="#1574E5"/>
<rect x="6.85693" y="232.857" width="18.2857" height="18.2857" rx="9.14286" fill="#E8F1FC"/>
<path d="M20.4089 238.744L15.4061 246.246C15.2868 246.421 15.1089 246.536 14.9124 246.564C14.7158 246.593 14.5171 246.533 14.361 246.398L10.7885 243.242C10.4732 242.963 10.4222 242.454 10.6745 242.106C10.9267 241.758 11.3868 241.701 11.7021 241.98L14.6811 244.614L19.2322 237.788C19.3815 237.541 19.6417 237.404 19.9096 237.432C20.1775 237.46 20.4097 237.649 20.5141 237.923C20.6185 238.197 20.5781 238.512 20.4089 238.744Z" fill="#093160"/>
<rect y="298" width="32" height="32" rx="16" fill="#1574E5"/>
<rect x="6.85645" y="304.857" width="18.2857" height="18.2857" rx="9.14286" fill="#E8F1FC"/>
<path d="M20.4084 310.744L15.4056 318.246C15.2863 318.421 15.1084 318.536 14.9119 318.565C14.7153 318.593 14.5167 318.533 14.3605 318.398L10.788 315.242C10.4727 314.963 10.4217 314.455 10.674 314.106C10.9263 313.758 11.3863 313.702 11.7016 313.98L14.6806 316.614L19.2317 309.789C19.381 309.541 19.6412 309.404 19.9091 309.432C20.177 309.46 20.4093 309.649 20.5136 309.923C20.618 310.197 20.5776 310.513 20.4084 310.744Z" fill="#093160"/>
<rect y="370" width="32" height="32" rx="16" fill="#1574E5"/>
<rect x="6.85742" y="376.856" width="18.2857" height="18.2857" rx="9.14286" fill="#E8F1FC"/>
<path d="M20.4094 382.744L15.4066 390.246C15.2873 390.421 15.1094 390.536 14.9128 390.565C14.7163 390.593 14.5176 390.533 14.3615 390.398L10.789 387.242C10.4737 386.963 10.4227 386.455 10.675 386.106C10.9272 385.758 11.3873 385.702 11.7026 385.98L14.6816 388.614L19.2327 381.789C19.382 381.541 19.6422 381.404 19.9101 381.432C20.178 381.46 20.4102 381.649 20.5146 381.923C20.619 382.197 20.5785 382.513 20.4094 382.744Z" fill="#093160"/>
<rect y="442" width="32" height="32" rx="16" fill="#1574E5"/>
<rect x="6.85693" y="448.856" width="18.2857" height="18.2857" rx="9.14286" fill="#E8F1FC"/>
<path d="M20.4089 454.744L15.4061 462.246C15.2868 462.421 15.1089 462.536 14.9124 462.565C14.7158 462.593 14.5171 462.533 14.361 462.398L10.7885 459.242C10.4732 458.963 10.4222 458.455 10.6745 458.106C10.9267 457.758 11.3868 457.702 11.7021 457.98L14.6811 460.614L19.2322 453.789C19.3815 453.541 19.6417 453.404 19.9096 453.432C20.1775 453.46 20.4097 453.649 20.5141 453.923C20.6185 454.197 20.5781 454.513 20.4089 454.744Z" fill="#093160"/>
<rect y="514" width="32" height="32" rx="16" fill="#1574E5"/>
<rect x="6.85693" y="520.856" width="18.2857" height="18.2857" rx="9.14286" fill="#E8F1FC"/>
<path d="M20.4089 526.744L15.4061 534.246C15.2868 534.421 15.1089 534.536 14.9124 534.565C14.7158 534.593 14.5171 534.533 14.361 534.398L10.7885 531.242C10.4732 530.963 10.4222 530.455 10.6745 530.106C10.9267 529.758 11.3868 529.702 11.7021 529.98L14.6811 532.614L19.2322 525.789C19.3815 525.541 19.6417 525.404 19.9096 525.432C20.1775 525.46 20.4097 525.649 20.5141 525.923C20.6185 526.197 20.5781 526.513 20.4089 526.744Z" fill="#093160"/>
<rect y="586" width="32" height="32" rx="16" fill="#1574E5"/>
<rect x="6.85693" y="592.856" width="18.2857" height="18.2857" rx="9.14286" fill="#E8F1FC"/>
<path d="M20.4089 598.744L15.4061 606.246C15.2868 606.421 15.1089 606.536 14.9124 606.565C14.7158 606.593 14.5171 606.533 14.361 606.398L10.7885 603.242C10.4732 602.963 10.4222 602.455 10.6745 602.106C10.9267 601.758 11.3868 601.702 11.7021 601.98L14.6811 604.614L19.2322 597.789C19.3815 597.541 19.6417 597.404 19.9096 597.432C20.1775 597.46 20.4097 597.649 20.5141 597.923C20.6185 598.197 20.5781 598.513 20.4089 598.744Z" fill="#093160"/>
</svg>

<svg xmlns="http://www.w3.org/2000/svg" width="32" height="618" fill="none"><path stroke="#B6D4F7" stroke-width="8" d="M16 30v576"/><rect width="32" height="32" fill="#1574E5" rx="16"/><rect width="18.286" height="18.286" x="6.857" y="6.857" fill="#E8F1FC" rx="9.143"/><path fill="#093160" d="m20.409 12.743-5.003 7.503a.73.73 0 0 1-.494.318.7.7 0 0 1-.551-.166l-3.572-3.157c-.316-.279-.367-.787-.114-1.135.252-.349.712-.405 1.027-.126l2.98 2.633 4.55-6.825a.71.71 0 0 1 .678-.356c.267.028.5.216.604.49a.88.88 0 0 1-.105.821"/><rect width="32" height="32" y="77" fill="#1574E5" rx="16"/><rect width="18.286" height="18.286" x="6.857" y="83.857" fill="#E8F1FC" rx="9.143"/><path fill="#093160" d="m20.409 89.744-5.003 7.502a.73.73 0 0 1-.494.318.7.7 0 0 1-.551-.166l-3.572-3.156c-.316-.28-.367-.788-.114-1.136.252-.348.712-.405 1.027-.126l2.98 2.634 4.55-6.826a.71.71 0 0 1 .678-.356c.267.028.5.217.604.491a.88.88 0 0 1-.105.82"/><rect width="32" height="32" y="154" fill="#1574E5" rx="16"/><rect width="18.286" height="18.286" x="6.857" y="160.857" fill="#E8F1FC" rx="9.143"/><path fill="#093160" d="m20.409 166.744-5.003 7.503a.73.73 0 0 1-.494.318.7.7 0 0 1-.551-.166l-3.572-3.157a.866.866 0 0 1-.114-1.135c.252-.349.712-.405 1.027-.126l2.98 2.633 4.55-6.825a.71.71 0 0 1 .678-.356c.267.028.5.216.604.49a.88.88 0 0 1-.105.821"/><rect width="32" height="32" y="226" fill="#1574E5" rx="16"/><rect width="18.286" height="18.286" x="6.857" y="232.857" fill="#E8F1FC" rx="9.143"/><path fill="#093160" d="m20.409 238.744-5.003 7.502a.73.73 0 0 1-.494.318.69.69 0 0 1-.551-.166l-3.572-3.156a.87.87 0 0 1-.114-1.136c.252-.348.712-.405 1.027-.126l2.98 2.634 4.55-6.826a.71.71 0 0 1 .678-.356c.267.028.5.217.604.491a.88.88 0 0 1-.105.821"/><rect width="32" height="32" y="298" fill="#1574E5" rx="16"/><rect width="18.286" height="18.286" x="6.856" y="304.857" fill="#E8F1FC" rx="9.143"/><path fill="#093160" d="m20.408 310.744-5.002 7.502a.73.73 0 0 1-.494.319.7.7 0 0 1-.552-.167l-3.572-3.156c-.315-.279-.366-.787-.114-1.136s.712-.404 1.028-.126l2.979 2.634 4.55-6.825a.71.71 0 0 1 .678-.357c.268.028.5.217.605.491a.88.88 0 0 1-.106.821"/><rect width="32" height="32" y="370" fill="#1574E5" rx="16"/><rect width="18.286" height="18.286" x="6.857" y="376.856" fill="#E8F1FC" rx="9.143"/><path fill="#093160" d="m20.41 382.744-5.003 7.502a.73.73 0 0 1-.494.319.7.7 0 0 1-.552-.167l-3.572-3.156c-.315-.279-.366-.787-.114-1.136s.712-.404 1.028-.126l2.979 2.634 4.55-6.825a.71.71 0 0 1 .678-.357c.268.028.5.217.605.491a.88.88 0 0 1-.106.821"/><rect width="32" height="32" y="442" fill="#1574E5" rx="16"/><rect width="18.286" height="18.286" x="6.857" y="448.856" fill="#E8F1FC" rx="9.143"/><path fill="#093160" d="m20.409 454.744-5.003 7.502a.73.73 0 0 1-.494.319.7.7 0 0 1-.551-.167l-3.572-3.156c-.316-.279-.367-.787-.114-1.136.252-.348.712-.404 1.027-.126l2.98 2.634 4.55-6.825a.71.71 0 0 1 .678-.357c.267.028.5.217.604.491a.88.88 0 0 1-.105.821"/><rect width="32" height="32" y="514" fill="#1574E5" rx="16"/><rect width="18.286" height="18.286" x="6.857" y="520.856" fill="#E8F1FC" rx="9.143"/><path fill="#093160" d="m20.409 526.744-5.003 7.502a.73.73 0 0 1-.494.319.7.7 0 0 1-.551-.167l-3.572-3.156c-.316-.279-.367-.787-.114-1.136.252-.348.712-.404 1.027-.126l2.98 2.634 4.55-6.825a.71.71 0 0 1 .678-.357c.267.028.5.217.604.491a.88.88 0 0 1-.105.821"/><rect width="32" height="32" y="586" fill="#1574E5" rx="16"/><rect width="18.286" height="18.286" x="6.857" y="592.856" fill="#E8F1FC" rx="9.143"/><path fill="#093160" d="m20.409 598.744-5.003 7.502a.73.73 0 0 1-.494.319.7.7 0 0 1-.551-.167l-3.572-3.156c-.316-.279-.367-.787-.114-1.136.252-.348.712-.404 1.027-.126l2.98 2.634 4.55-6.825a.71.71 0 0 1 .678-.357c.267.028.5.217.604.491a.88.88 0 0 1-.105.821"/></svg>
